X:1024
T:Astley's Ride
T:Ashleys Rides
R:Reel
C:Trad. J Clare 1834
O:England
N:Philip Astley founded the modern circus
Z:Paul Hardy's Session Tunebook 2022 (see www.paulhardy.net). Creative Commons cc by-nc-sa licenced.
M:4/4
L:1/8
Q:1/4=160
K:D
af|"D"d2d2 d2cd|"A7"e2e2 e2ge|"D"dcBA "G"B2c2|"D"d2D2 "A7"D2af|
|"D"d2d2 d2cd|"A7"e2e2 e2fe|"G"dcBA "A7" Bd ce|"D"d2 d2 d2:|
|:de|"D"f2f2 f2ef|"G"g2g2 g2bg|"A7"e2e2 e2de|"D"f2f2 f2af|
"Bm"d2d2 d2cd|"Em"e2e2 e2fe|"G"dcBA "A7"Bd ce|"D"d2 d2 d2:|

